X:1
T:Title
%%score { ( 1 3 ) | ( 2 4 ) }
L:1/8
M:4/4
K:Eb
V:1 treble nm="Grand Piano"
V:3 treble 
V:2 bass 
V:4 bass 
V:1
 z4 z2[Q:1/4=100] [Ec]>[_DB] | [CA]2 [CA]2 [CA]>[CG] [CF]>[CE] | G2 G2 G2 E>c | %3
 B2 e>c' b2 [CE]>[Cc] |[M:3/4] [CA]2 [ce]>[cc'] [ca]2 |[M:1/4] [Ec]>[_DB] | %6
[M:4/4] [CA]2 [CA]2 [CA]>[CG] [CF]>[CE] | G2 G2 G2 E>c | B2 e>c' b2 [CE]>[Cc] | %9
[M:3/4] [CA]2 [ce]>[cc'] [ca]2 |[M:1/4] cc |[M:4/4] c4 z4 | E6 z2 | z _DD[FB] [FA]2 [DF]2 | %14
[M:3/4] c6 |[M:1/4] ee |[M:4/4] e-[_DGe-][DGe][G_d] [Gc]2 [GB]2 | c6 z2 | BBBB ccBB | %19
[M:3/4] z [ee'] [ee'][ee'] [ee']2 |[M:1/4] ed |[M:4/4] e6 z2 | e6 z2 | [Gf]2 [Ge]2 [EGB]2 [EB_d]2 | %24
[M:3/4] [EAc]6 |[M:1/4] cc |[M:4/4] B4 z4 | A4 z4 | [Gf]2 [Ge]2 [G_d]2 [GB]2 |[M:3/4] [CEA]6 |] %30
V:2
 z4 z2 [A,,A,]>[A,,A,] | [A,,E,]2 [A,,E,]2 [A,,A,]>[A,,A,] [A,,A,]>[A,,A,] | %2
 [E,B,_D]2 [E,B,D]2 [E,B,D]2 [E,G,D]>[E,G,D] | %3
 [E,G,_D]2[K:treble] [EG_d]>[EGd] [EGd]2[K:bass] [A,,A,]>[A,,A,] | %4
[M:3/4] [A,,A,]2[K:treble] [A,A]>[A,A] [A,A]2 |[M:1/4][K:bass] [A,,A,]>[A,,A,] | %6
[M:4/4] [A,,E,]2 [A,,E,]2 [A,,A,]>[A,,A,] [A,,A,]>[A,,A,] | %7
 [E,B,_D]2 [E,B,D]2 [E,B,D]2 [E,G,D]>[E,G,D] | %8
 [E,G,_D]2[K:treble] [EG_d]>[EGd] [EGd]2[K:bass] [A,,A,]>[A,,A,] | %9
[M:3/4] [A,,A,]2[K:treble] [A,A]>[A,A] [A,A]2 |[M:1/4] z2 | %11
[M:4/4][K:bass] [E,G,_D][E,G,][E,G,][E,G,D] [E,B,D]2 [E,B,D]2 | %12
 [A,,A,][A,,A,][A,,A,][A,,A,] [A,,A,]2 z2 | [_D,A,_D][D,A,][D,A,][D,A,D] [D,D]2 [D,A,]2 | %14
[M:3/4] [A,,A,][A,,A,] [A,,A,][A,,A,] [A,,A,]2 |[M:1/4] z2 | %16
[M:4/4] [E,B,_D][E,B,][E,B,][E,B,D] [E,E]2 [E,E]2 | [A,EA][A,E][A,E][A,E] [A,E]2 z2 | %18
 [G,B,E][G,B,E][G,B,E][G,B,E] [F,A,D][F,A,D][F,A,D][F,A,D] |[M:3/4] .E,2 z2 z2 |[M:1/4] z2 | %21
[M:4/4] z2 [E,B,][E,=A,] [E,B,]2 z2 | z2 [E,C][E,B,] [E,C]2 [E,C][E,C] | [E,B,]2 [E,B,]2 E,2 G,2 | %24
[M:3/4] A,A, E,C, A,,2 |[M:1/4] z2 |[M:4/4] z2 [_D,A,][D,A,] [D,A,_D]2 z2 | %27
 z2 [E,C][E,C] [E,A,]2 [E,C][E,C] | [E,B,]2 [E,B,]2 [E,E]2 [E,_D]2 |[M:3/4] [A,,A,]6 |] %30
V:3
 x8 | x8 | x8 | x8 |[M:3/4] x6 |[M:1/4] x2 |[M:4/4] x8 | x8 | x8 |[M:3/4] x6 |[M:1/4] x2 | %11
[M:4/4] z _DDB F2 G2 | CCCC C2 AG | F4 z4 |[M:3/4] EE EE E2 |[M:1/4] x2 |[M:4/4] .G2 z2 z4 | %17
 z AAA A2 cc | x8 |[M:3/4] E6 |[M:1/4] x2 |[M:4/4] z2 G_G =G2 ed | z2 AG A2 [Ae][Ae] | x8 | %24
[M:3/4] x6 |[M:1/4] x2 |[M:4/4] z2 FF F2 BB | z2 EE [CE]2 [Ae][Ae] | x8 |[M:3/4] x6 |] %30
V:4
 x8 | x8 | x8 | x2[K:treble] x4[K:bass] x2 |[M:3/4] x2[K:treble] x4 |[M:1/4][K:bass] x2 | %6
[M:4/4] x8 | x8 | x2[K:treble] x4[K:bass] x2 |[M:3/4] x2[K:treble] x4 |[M:1/4] x2 | %11
[M:4/4][K:bass] x8 | x8 | x8 |[M:3/4] x6 |[M:1/4] x2 |[M:4/4] x8 | x8 | x8 | %19
[M:3/4] G,-[E,,E,G,-] [E,,E,G,-][E,,E,G,-] [E,,E,G,]2 |[M:1/4] x2 |[M:4/4] x8 | x8 | x8 | %24
[M:3/4] x6 |[M:1/4] x2 |[M:4/4] x8 | x8 | x8 |[M:3/4] x6 |] %30

